!!!COS: Dunstable, John (???)
!!!COS: Power, Leonel (???)
!!!OTL: Salve Regina Mater misericordie (with Trope 'Virgo Mater')
!!!ONB: Conflicting Attribution No. 1 (LP22 OR JD63).
!!!YOR: from: "Musica Britannica" Vol. 8, edited by Manfred F. Bukofzer,
!!!YOR: 2nd rev. ed. (prepared by Margaret Bent, Ian Bent & Brian Trowell), pp.152-155
!!!YOO: Royal Musical Association (London)
!!!YOY: 1970
**kern	**kern	**kern
*ICvox	*ICvox	*ICvox
! tenor	! contratenor	! discantus
*M3/4	*M3/4	*M3/4
=1	=1	=1
*>A	*>A	*>A
!! Section 'A'; (O) mensuration.
2.A	2.e	2.a
=2	=2	=2
4F	4f	4.a
2c	4e	.
.	.	8g
.	4c	4e
=3	=3	=3
2.d	4B-	4f
.	2G	4.b-
.	.	8a
=4	=4	=4
4c	4A	4.a
2B-	4r	.
.	.	4g
.	4d	.
.	.	8f
=5	=5	=5
2A	4e	4a
.	4c	8f
.	.	8.e
4G	8B-	.
.	.	16d
.	8A	[8d
=6	=6	=6
4F	4.A	16d]
.	.	16c
.	.	8d
2E	.	8e
.	4G	8Bn
.	.	8c#x
.	8F#x	16Bn
.	.	16c#x
=7	=7	=7
[2.D	[2.A	4d
.	.	4r
.	.	4a
=8	=8	=8
2.D]	4A]	4a
.	2d	8g
.	.	8a
.	.	8f
.	.	8e
=9	=9	=9
2G	4B-	4e
.	2G	8d
.	.	4g
[4B-	.	.
.	.	[8d
=10	=10	=10
4B-]	2F	8d]
.	.	8g
2A	.	8.a
.	.	16f#x
.	4c	8c#x
.	.	16e
.	.	16f#x
=11	=11	=11
[2.G	4d	4.g
.	4.Bnx	.
.	.	8f
.	.	8d
.	8G	[8e
=12	=12	=12
2.G]	4G	8e]
.	.	4Bn
.	4r	.
.	.	8G
.	4E	8Bn
.	.	8c
=13	=13	=13
2F	4D	4d
.	2F	8c
.	.	4A
4A	.	.
.	.	[8c
=14	=14	=14
4G	4E	16c]
.	.	16d
.	.	8e
4D	8A	8f
.	4A	4d
4E	.	.
.	8G	8c#x
=15	=15	=15
2.D	2.A	4d
.	.	4r
.	.	4a
=16	=16	=16
2.d	2r	4a
.	.	2b
.	4G	.
=17	=17	=17
[2.c	2C	4.cc
.	.	16b
.	.	16cc
.	4F	8b
.	.	8a
=18	=18	=18
2.c]	[2.C	4a
.	.	8g
.	.	8g
.	.	8a
.	.	8g
=19	=19	=19
[2.c	4C]	4e
.	[2F	4r
.	.	4a
=20	=20	=20
4c]	4F]	4.a
2B-	2G	.
.	.	4g
.	.	8f
=21	=21	=21
[2.A	2.D	4a
.	.	4.f
.	.	8e
=22	=22	=22
2.A]	2c	4e
.	.	4r
.	[4F	4a
=23	=23	=23
2c	4F]	4a
.	2c	8g
.	.	8e
[4A	.	8f
.	.	8e
=24	=24	=24
4A]	4A	4c
2B-	2G	4d
.	.	8g
.	.	8f
=25	=25	=25
4A	2c	4.f
2G	.	.
.	.	4e
.	4Bnx	.
.	.	8d
=26	=26	=26
[2.F	2c	4f
.	.	4r
.	4r	4a
=27	=27	=27
2F]	2A	4a
.	.	4cc
4G	4d	8b-x
.	.	8a
=28	=28	=28
4A	4c	4a
2B-	2d	4g
.	.	8f
.	.	8e
=29	=29	=29
[2.c	2.A	2e
.	.	4a
=30	=30	=30
2.c]	2F	4.a
.	.	8g
.	4E	8g
.	.	8f
=31	=31	=31
2.d	2.D	4d
.	.	4r
.	.	4f
=32	=32	=32
2A	2r	4f
.	.	4.e
4G	4G	.
.	.	8d
=33	=33	=33
[2.F	2A	4d
.	.	8c
.	.	4c
.	4c	.
.	.	8A
=34	=34	=34
2.F]	4d	4A
.	8c	4r
.	4c	.
.	.	4A
.	8A	.
=35	=35	=35
2A	4A	8c
.	.	8d
.	4c	4e
4D	8d	4f
.	8c	.
=36	=36	=36
4F	4.A	4d
2E	.	4.c#x
.	4G	.
.	8F#x	8B
=37	=37	=37
[2.D	2A	2.d
.	4r	.
=38	=38	=38
2.D]	2.d	2r
.	.	4d
=39	=39	=39
2.A	2c	[2.e
.	4A	.
=40	=40	=40
2.G	4B-	4e]
.	2d	2g
=41	=41	=41
2.D	4.d	2a
.	8c	.
.	8B-	8f
.	8A	8e
=42	=42	=42
[2.G	4B-	4e
.	4G	4d
.	4r	4g
=43	=43	=43
2.G]	2.d	4g
.	.	4.b-
.	.	8a
=44	=44	=44
4A	4c	4a
2B-	2G	4g
.	.	8f
.	.	8e
=45	=45	=45
[2.c	2.A	4e
.	.	4r
.	.	4a
=46	=46	=46
4c]	4F	4.a
2B-	2G	.
.	.	4g
.	.	8f
=47	=47	=47
2A	2D	4a
.	.	4f
4G	4E	8e
.	.	8d
=48	=48	=48
4F	4A	4d
2E	2G	8e
.	.	8d
.	.	8c
.	.	16d
.	.	16Bn
=49	=49	=49
[2.F	4c	4A
.	8d	4r
.	4f	.
.	.	4a
.	8e	.
=50	=50	=50
2F]	4.c	2a
.	8d	.
4G	4B-	4g
=51	=51	=51
2A	4A	4f
.	4c	4.e
[4F	8B-	.
.	8A	8d
=52	=52	=52
4F]	2A	4.d
2E	.	.
.	.	4.c#x
.	4G	.
=53	=53	=53
2.D	2.A	4d
.	.	4r
.	.	4f
=54	=54	=54
2.A	2r	4e
.	.	4.a
.	4c#x	.
.	.	8g
=55	=55	=55
2.B-	2.d	4g
.	.	8f
.	.	8d
.	.	8f
.	.	[8g
=56	=56	=56
2.c	2.A	8g]
.	.	4a
.	.	8g
.	.	8e
.	.	8d
=57	=57	=57
2d	2D	8f
.	.	8g
.	.	4a
4G	4d	4b-x
=58	=58	=58
4B-	2d	4g
2A	.	8f#x
.	.	4f#x
.	4c#x	.
.	.	8e
=59	=59	=59
[2.G	[2.d	[2.g
=59a	=59a	=59a
2.G]	2.d]	2.g]
=60	=60	=60
*>B	*>B	*>B
!! Section 'B'; (C/) mensuration.
*M2/2	*M2/2	*M2/2
1D	1d	1a
=61	=61	=61
4A	4d	4f
4B-	4G	4g
2c	2A	2e
=62	=62	=62
1d	4B-	2d
.	2G	.
.	.	4r
.	4D	4f
=63	=63	=63
[1c	2A	4e
.	.	2a
.	4F	.
.	4E	4g
=64	=64	=64
2c]	2A	4e
.	.	4f#
4B-	2G	4.g
[4G	.	.
.	.	8f
=65	=65	=65
4G]	4B-	8e
.	.	8d
4A	4A	4c
4B-	4G	4d
4c	[4A	4c
=66	=66	=66
2A	4A]	4f
.	2c	4.f
2G	.	.
.	.	4e
.	4B-	.
.	.	8d
=67	=67	=67
1F	1c	2f
.	.	4r
.	.	[4a
=68	=68	=68
1c	1A	4a]
.	.	2e
.	.	4c
=69	=69	=69
2B-	2G	2d
2A	4r	4c
.	4c	4A
=70	=70	=70
4G	4e	4Bn
2F	4.f	4c
.	.	2d
.	8d	.
[4G	4d	.
=71	=71	=71
4G]	4B-	4.e
2A	4c	.
.	.	8d
.	4A	4f
[4G	[4B-	8g
.	.	8f
=72	=72	=72
4G]	8B-]	8e
.	8A	8d
4F	2A	2d
2E	.	.
.	4G	8c#x
.	.	8B
=73	=73	=73
1D	2A	2d
.	2d	4r
.	.	4f
=74	=74	=74
4r	2B-	4g
4G	.	2e
2A	4r	.
.	4c	[4f
=75	=75	=75
2B-	2d	4f]
.	.	4g
4c	4c	4a
[4d	[4G	[4b-x
=76	=76	=76
4d]	4G]	8b-x]
.	.	8a
4c	4A	2a
2B-	2d	.
.	.	4g
=77	=77	=77
[1A	2.e	2a
.	.	4r
.	[4c	4e
=78	=78	=78
1A]	2c]	4f
.	.	4e
.	[2A	4c
.	.	8B
.	.	8c
=79	=79	=79
1D	4A]	4d
.	2.d	4Bn
.	.	4Bn
.	.	4A
=80	=80	=80
4E	4r	2c
2F	4A	.
.	4c	4A
4G	4Bnx	4Bn
=81	=81	=81
4E	4G	4c
4F	4A	2d
2G	2Bnx	.
.	.	4Bn
=82	=82	=82
2A	4c	8A
.	.	8Bn
.	4A	4c
4B-	4G	4d
4A	4A	[4e
=83	=83	=83
4G	4B-	8e]
.	.	8d
4F	2A	4.d
2E	.	.
.	.	8c#x
.	4G	8c#x
.	.	16d
.	.	16c#x
=84	=84	=84
2D	2A	1d
4r	4B-	.
4F	4A	.
=85	=85	=85
4G	4B-	4r
2A	4c	4e
.	4r	4f
4G	4d	[4g
=86	=86	=86
2c	2e	8g]
.	.	8f
.	.	4.a
2B-	2d	.
.	.	8g
.	.	4g
=87	=87	=87
2d	4r	4f
.	4B-	2d
2B-	2G	.
.	.	[4g
=88	=88	=88
4A	4A	8g]
.	.	8f
2G	4B-	8f
.	.	8d
.	4G	4.e
[4F	4A	.
.	.	8d
=89	=89	=89
4F]	4D	4d
4G	4E	4Bn
2E	2G	8c#x
.	.	8d
.	.	8Bn
.	.	8c#x
=90	=90	=90
1D	1A	1d
=91	=91	=91
*>C	*>C	*>C
!! Section 'C'; (O) mensuration.
*M3/4	*M3/4	*M3/4
2.d	2.r	2d
.	.	4f
=92	=92	=92
2.c	2.r	4e
.	.	4a
.	.	8g
.	.	8f
=93	=93	=93
4d	2.r	8d
.	.	8f
8c	.	8e
8d	.	4d
4e	.	.
.	.	8c#x
=94	=94	=94
4d	2.r	4d
8B-	.	4r
4c	.	.
.	.	8e
8A	.	8f
=95	=95	=95
8G	2.r	8.g
4B-	.	.
.	.	16f
.	.	16e
.	.	16d
8A	.	8c
4G	.	8d
.	.	8B
=96	=96	=96
4A	2.r	4A
8G	.	8B
8A	.	8c
8F	.	4d
[8D	.	.
=97	=97	=97
8D]	2.r	4A
8.F	.	.
.	.	8.c
16G	.	.
8A	.	.
.	.	16d
8G	.	8e
[8B-	.	8d
=98	=98	=98
8B-]	2.r	8g
8A	.	8f
8G	.	16e
.	.	16d
8F	.	8.d
4E	.	.
.	.	16c#x
.	.	16c#x
.	.	16Bn
=99	=99	=99
[2.D	2.r	2.d
=100	=100	=100
2.D]	2.r	2r
.	.	4d
=101	=101	=101
2.A	2.r	4e
.	.	8f
.	.	4a
.	.	8g
=102	=102	=102
4c	2.r	4e
4d	.	8d
.	.	8B
8c	.	4A
[8A	.	.
=103	=103	=103
8A]	2.r	8c
8G	.	8B
8A	.	4A
8c	.	.
8Bnx	.	8G
[8A	.	8c
=104	=104	=104
8A]	2.r	8d
8G	.	4e
4A	.	.
.	.	8f
8B-	.	8.g
[8G	.	.
.	.	16f
=105	=105	=105
4G]	2.r	16e
.	.	16d
.	.	8.e
8F	.	.
.	.	16d
8D	.	8d
4E	.	8c#x
.	.	16Bn
.	.	16c#x
=106	=106	=106
[2.D	2.r	2.d
=107	=107	=107
2.D]	2.r	2.r
=108	=108	=108
[2.c	2.r	2.e
=109	=109	=109
2c]	2.r	4e
.	.	4a
4B-	.	8g
.	.	8f
=110	=110	=110
4A	2.r	4.f
2G	.	.
.	.	4e
.	.	8d
=111	=111	=111
2.F	2.r	4f
.	.	8c
.	.	4d
.	.	[8A
=112	=112	=112
4c	2.r	8A]
.	.	8F
8B-	.	4G
4d	.	.
.	.	4F
[8A	.	.
=113	=113	=113
8A]	2.r	4r
8F	.	.
4G	.	4e
4F	.	8f
.	.	[8a
=114	=114	=114
8A	2.r	8a]
8B-	.	8g
4c	.	8e
.	.	8f
8B-	.	4g
[8G	.	.
=115	=115	=115
8G]	2.r	8.e
8E	.	.
.	.	16c
8F	.	8d
8A	.	4f
4G	.	.
.	.	8e
=116	=116	=116
[2.F	2.r	4f
.	.	4r
.	.	[4d
=117	=117	=117
2F]	2.r	8d]
.	.	4c
.	.	8d
4G	.	4B
=118	=118	=118
2.A	2.r	4A
.	.	4r
.	.	4c
=119	=119	=119
4G	2.r	8d
.	.	4e
8A	.	.
4c	.	8c
.	.	8e
8B-	.	8f
=120	=120	=120
8G	2.r	4g
2c	.	.
.	.	8e
.	.	8c
.	.	4d
8Bnx	.	.
=121	=121	=121
4c	2.r	4c
8B-	.	8d
8G	.	4e
4A	.	.
.	.	8f
=122	=122	=122
8B-	2.r	8d
2A	.	8c
.	.	8A
.	.	8c
.	.	4B-x
8G	.	.
=123	=123	=123
8A	2.r	4A
8c	.	.
8B-	.	8G
4A	.	8A
.	.	8c
8G	.	8B-x
=124	=124	=124
4F	2.r	8A
.	.	8d
2E	.	8e
.	.	8d
.	.	8c#x
.	.	16Bn
.	.	16c#x
=125	=125	=125
[2.D	2.r	[2.d
=125a	=125a	=125a
2.D]	2.r	2.d]
=126	=126	=126
*>D	*>D	*>D
!! Section 'D'; (O) mensuration.
[2.A	2.A	4.e
.	.	8f
.	.	4a
=127	=127	=127
2.A]	2.c	4a
.	.	4.f
.	.	8e
=128	=128	=128
2.G	4d	4g
.	4.Bn	4.e
.	8A	8c
=129	=129	=129
2.A	4A	4c
.	2D	4r
.	.	4f
=130	=130	=130
2.A	2.c	4e
.	.	4.a
.	.	8g
=131	=131	=131
4B-	4G	4.g
2c	2A	.
.	.	8f
.	.	4e
=132	=132	=132
[2.d	2.D	4d
.	.	4r
.	.	4a
=133	=133	=133
2.d]	4r	4a
.	2G	2b
=134	=134	=134
2.c	4A	4.cc
.	2F	.
.	.	8b
.	.	8a
.	.	8g
=135	=135	=135
4B-	4G	4.g
2A	4r	.
.	.	4f#x
.	4c	.
.	.	8e
=136	=136	=136
4.G	4d	4g
.	8B-	8e
8A	8c	8f
8B-	8d	8g
8c	8A	[8a
=137	=137	=137
8A	8c	8a]
8G	8d	8.b-x
4c	8e	.
.	.	16a
.	4e	4a
4B-	.	.
.	8d	8g
=138	=138	=138
[2.A	[2.e	[2.a
=138a	=138a	=138a
2.A]	2.e]	2.a]
=139	=139	=139
*>E	*>E	*>E
!! Section 'E'; (C/) mensuration.
*M2/2	*M2/2	*M2/2
1d	1r	2.d
.	.	4f
=140	=140	=140
1c	1r	4e
.	.	4.a
.	.	8g
.	.	8f
.	.	16g
.	.	16e
=141	=141	=141
2d	1r	4d
.	.	4Bn
4e	.	4c
4d	.	[4d
=142	=142	=142
2B-	1r	4d]
.	.	2g
2c	.	.
.	.	[4a
=143	=143	=143
4G	1r	8a]
.	.	8g
4B-	.	4.g
[2A	.	.
.	.	8f
.	.	8e
.	.	8d
=144	=144	=144
4A]	1r	4c
2G	.	4d
.	.	4Bn
[4A	.	8A
.	.	8Bn
=145	=145	=145
4A]	1r	4c
4F	.	2d
2G	.	.
.	.	[4e
=146	=146	=146
4A	1r	8e]
.	.	8d
4F	.	4.d
2E	.	.
.	.	4c#x
.	.	8Bn
=147	=147	=147
1D	1r	2d
.	.	2r
=148	=148	=148
1A	1r	2.e
.	.	[4a
=149	=149	=149
1c	1r	4a]
.	.	4g
.	.	2e
=150	=150	=150
2d	1r	4d
.	.	4f
4c	.	2e
[4e	.	.
=151	=151	=151
4e]	1r	4c
4d	.	4Bn
4Bnx	.	4c
4c	.	[4e
=152	=152	=152
2A	1r	4e]
.	.	4c
2G	.	2B-x
=153	=153	=153
2.A	1r	2A
.	.	2r
[4c	.	.
=154	=154	=154
4c]	1r	4e
4A	.	4f
2B-	.	4d
.	.	[4g
=155	=155	=155
2A	1r	8g]
.	.	8f
.	.	4.f
2G	.	.
.	.	16e
.	.	16f
.	.	8e
.	.	8d
=156	=156	=156
1F	1r	2f
.	.	4r
.	.	[4a
=157	=157	=157
4r	1r	4a]
2G	.	4g
.	.	2e
[4A	.	.
=158	=158	=158
4A]	1r	4f
4B-	.	2g
2c	.	.
.	.	4a
=159	=159	=159
2d	1r	4.b-
.	.	8a
4c	.	2a
[4B-	.	.
=160	=160	=160
4B-]	1r	4g
4.A	.	4f
.	.	2e
8Bnx	.	.
4c#x	.	.
=161	=161	=161
2d	1r	2d
2c	.	4r
.	.	4e
=162	=162	=162
4r	1r	2c
2A	.	.
.	.	4r
[4c	.	4e
=163	=163	=163
8c]	1r	2g
8B-	.	.
8A	.	.
16B-	.	.
16G	.	.
2F	.	2a
=164	=164	=164
2c	1r	4r
.	.	4g
4r	.	2e
4c	.	.
=165	=165	=165
2d	1r	4f
.	.	2d
4B-	.	.
4G	.	4e
=166	=166	=166
4A	1r	2c
4c	.	.
2B-	.	4d
.	.	[4B-x
=167	=167	=167
4G	1r	4B-x]
2A	.	4c
.	.	2A
4F	.	.
=168	=168	=168
4E	1r	2G
2G	.	.
.	.	4Bn
4E	.	4c
=169	=169	=169
*M3/2	*M3/2	*M3/2
2F	1.r	4A
.	.	4.d
2C	.	.
.	.	8c
.	.	2c
2D	.	.
.	.	8Bn
.	.	8A
=170	=170	=170
*M2/2	*M2/2	*M2/2
2C	1r	2c
4r	.	2A
4c	.	.
=171	=171	=171
2d	1r	4r
.	.	4Bn
2c	.	4c
.	.	4e
=172	=172	=172
2B-	1r	4d
.	.	2g
4G	.	.
4F	.	[4a
=173	=173	=173
4G	1r	8a]
.	.	8g
4B-	.	4.g
2A	.	.
.	.	8f#x
.	.	8f#x
.	.	8e
=174	=174	=174
4G	1r	4g
2c	.	4e
.	.	4c
4B-	.	4d
=175	=175	=175
4G	1r	4Bn
4A	.	2A
2F	.	.
.	.	4d
=176	=176	=176
*M3/2	*M3/2	*M3/2
4E	1.r	4c
4C	.	4.e
4D	.	.
.	.	8d
4F	.	4.d
2E	.	.
.	.	4c#x
.	.	8B
=177	=177	=177
*M2/2	*M2/2	*M2/2
1D	1r	1d
=178	=178	=178
*>F	*>F	*>F
!! Section 'F'; (C/) mensuration.
[1A	2A	2e
.	2D	4f
.	.	[4a
=179	=179	=179
1A]	4r	4a]
.	4A	4g
.	2c	4f
.	.	[4e
=180	=180	=180
1G	2.Bnx	8e]
.	.	8d
.	.	2d
.	4d	4Bn
=181	=181	=181
[1A	4c	2A
.	4.e	.
.	.	4r
.	8d	.
.	4e	[4c
=182	=182	=182
1A]	4c	8c]
.	.	8d
.	4A	4e
.	2c	4f
.	.	[4a
=183	=183	=183
2B-	4r	8a]
.	.	8g
.	4G	2g
2c	2E	.
.	.	4e
=184	=184	=184
2.d	2.D	4f
.	.	4d
.	.	4f
[4c	[4F	[4a
=185	=185	=185
4c]	4F]	8a]
.	.	8g
4B-	4G	2g
2A	4A	.
.	4c	4f
=186	=186	=186
2G	2B-	4g
.	.	4e
4F	4c	4a
4G	4B-	[4b-
=187	=187	=187
4A	2A	8b-]
.	.	8a
4c	.	4a
2B-	2d	4.g
.	.	8f
=188	=188	=188
1A	1e	1a
=189	=189	=189
*>G	*>G	*>G
!! Section 'G'; (O) mensuration.
*M3/4	*M3/4	*M3/4
[2.d	2.r	[2.d
=190	=190	=190
2.d]	2.r	2d]
.	.	4f
=191	=191	=191
2c	2.r	4e
.	.	8a
.	.	4g
4B-	.	.
.	.	8f
=192	=192	=192
4A	2.r	4a
8B-	.	8g
4d	.	8f
.	.	8d
8c	.	[8e
=193	=193	=193
8A	2.r	16e]
.	.	16c
8B-	.	4d
4G	.	.
.	.	8Bn
8F	.	4A
[8A	.	.
=194	=194	=194
8A]	2.r	8c
4G	.	8d
.	.	4e
4A	.	.
.	.	8f
8B-	.	[8g
=195	=195	=195
4c	2.r	8g]
.	.	8e
4d	.	8d
.	.	8f
4c	.	8e
.	.	[8a
=196	=196	=196
8A	2.r	16a]
.	.	16g
8B-	.	8.g
4G	.	.
.	.	16f
.	.	16e
.	.	16d
[4A	.	8c
.	.	8f
=197	=197	=197
8A]	2.r	8.e
4G	.	.
.	.	16d
.	.	8e
8F	.	8.d
4E	.	.
.	.	16Bn
.	.	8c#x
=198	=198	=198
[2.D	2.r	2.d
=199	=199	=199
2.D]	2.r	2r
.	.	4d
=200	=200	=200
2d	2.r	4.d
.	.	8e
4d	.	4f
=201	=201	=201
2.c	2.r	4g
.	.	4.e
.	.	8c
=202	=202	=202
2.c	2.r	4c
.	.	4r
.	.	4a
=203	=203	=203
2c	2.r	4a
.	.	8g
.	.	8e
4B-	.	8d
.	.	8g
=204	=204	=204
4A	2.r	8a
.	.	4f
2G	.	.
.	.	8e
.	.	8e
.	.	16d
.	.	16e
=205	=205	=205
2.F	2.r	4f
.	.	4r
.	.	[4a
=206	=206	=206
2d	2.r	4a]
.	.	2b
4d	.	.
=207	=207	=207
[2.c	2.r	4.cc
.	.	8b
.	.	8g
.	.	[8a
=208	=208	=208
2c]	2.r	8a]
.	.	4e
.	.	8c
4Bnx	.	4d
=209	=209	=209
4c	2.r	8.c
.	.	16d
4r	.	8e
.	.	8f
4C	.	8e
.	.	[8c
=210	=210	=210
4E	2.r	16c]
.	.	16Bn
.	.	8c
2D	.	8d
.	.	8A
.	.	4Bn
=211	=211	=211
2C	2.r	4c
.	.	4r
4c	.	4e
=212	=212	=212
4d	2.r	8f
.	.	4a
8c	.	.
8B-	.	8g
4A	.	8.f
.	.	16e
=213	=213	=213
2.G	2.r	8g
.	.	8e
.	.	8d
.	.	8c
.	.	4Bn
=214	=214	=214
4A	2.r	4A
8B-	.	8G
8c	.	4A
4A	.	.
.	.	8c
=215	=215	=215
8G	2.r	8B-x
4A	.	8A
.	.	8c
8F	.	4d
4G	.	.
.	.	8e
=216	=216	=216
8E	2.r	8c
4A	.	8d
.	.	8B-x
8F	.	4A
4A	.	.
.	.	8c
=217	=217	=217
8B-	2.r	8d
8c	.	4e
4A	.	.
.	.	8f
8B-	.	8.g
[8G	.	.
.	.	16f
=218	=218	=218
8G]	2.r	16e
.	.	16d
8G	.	8.e
4F	.	.
.	.	16d
.	.	4d
4E	.	.
.	.	8c#x
=219	=219	=219
[2.D	2.r	[2.d
=219a	=219a	=219a
2.D]	2.r	2.d]
=220	=220	=220
*>H	*>H	*>H
!! Section 'H'; (O) mensuration.
[2.A	2A	2e
.	4F	4a
=221	=221	=221
2.A]	2.D	4a
.	.	4g
.	.	8f
.	.	8e
=222	=222	=222
2.G	2.Bn	4e
.	.	8d
.	.	4d
.	.	8c
=223	=223	=223
2.A	2.c	4A
.	.	4r
.	.	4a
=224	=224	=224
[2.D	2.d	4a
.	.	4.b-x
.	.	8a
=225	=225	=225
2.D]	2.r	2a
.	.	8f
.	.	8e
=226	=226	=226
2E	2Bn	8.g
.	.	16f
.	.	8g
.	.	8e
4F	4A	8c
.	.	[8d
=227	=227	=227
4G	4G	8d]
.	.	8e
2F	8A	8f
.	4c	8e
.	.	8c
.	8B-	[8d
=228	=228	=228
4E	4.G	8d]
.	.	4c
2D	.	.
.	4F	8Bn
.	.	8Bn
.	8E	8A
=229	=229	=229
2.C	2.G	2.c
=230	=230	=230
4E	2r	4Bn
2F	.	2A
.	4c	.
=231	=231	=231
2.G	4Bn	2.G
.	4.e	.
.	8d	.
=232	=232	=232
2.G	4d	2r
.	4.Bn	.
.	.	4g
.	8A	.
=233	=233	=233
2.F	4c	2.a
.	8d	.
.	4f	.
.	8e	.
=234	=234	=234
2G	4d	4g
.	4Bn	8e
.	.	8e
[4A	8c	8f
.	8A	8e
=235	=235	=235
4A]	4.A	4c
2D	.	8d
.	4.Bn	4f
.	.	8d
=236	=236	=236
2C	2c	8e
.	.	8f
.	.	4.g
4D	[4A	.
.	.	8f
=237	=237	=237
4F	8A]	4.d
.	8B-	.
2E	8A	.
.	4G	8e
.	.	8c#x
.	8F#x	16Bn
.	.	16c#x
=238	=238	=238
[2.D	[2.A	[2.d
=239	=239	=239
2.D]	2.A]	2.d]
==	==	==
*-	*-	*-
!!!ENC: Mark Laxton
!!!EDD: Mark Laxton
!!!YEC: Mark Laxton, 1987
!!!EMD: Reference records added by D. Huron, 2001
!!!EEV: 1.1
